icons/baby_female_0306m.svg

<svg width="48" height="48" viewBox="0 0 48 48" fill="none" xmlns="http://www.w3.org/2000/svg">
<path fill-rule="evenodd" clip-rule="evenodd" d="M18 12C18 14.973 15.8377 17.441 13 17.917V20H15C15.5523 20 16 20.4477 16 21C16 21.5523 15.5523 22 15 22H13V25C13 25.5523 12.5523 26 12 26C11.4477 26 11 25.5523 11 25V22H9C8.44772 22 8 21.5523 8 21C8 20.4477 8.44772 20 9 20H11V17.917C8.16229 17.441 6 14.973 6 12C6 8.68629 8.68629 6 12 6C15.3137 6 18 8.68629 18 12ZM12 16C14.2091 16 16 14.2091 16 12C16 9.79086 14.2091 8 12 8C9.79086 8 8 9.79086 8 12C8 14.2091 9.79086 16 12 16Z" fill="black"/>
<path fill-rule="evenodd" clip-rule="evenodd" d="M27.4755 41.9996C27.5031 42.0006 27.5311 42.0004 27.5592 41.999C27.5682 41.9986 27.5771 41.998 27.586 41.9973C29.2027 41.9487 30.4823 41.2496 31.5421 40.3344C31.6386 40.4754 31.743 40.6247 31.8482 40.7639C32.1852 41.2097 32.842 42 33.859 42H38.8596C40.7299 42 42 40.2766 42 38.6847C42 36.9311 40.5817 35.3695 38.7398 35.3695H36.092C35.2782 34.9613 34.6093 34.1739 33.793 33.1319C33.7424 33.0673 33.6911 33.0016 33.6391 32.9349C33.1514 32.3096 32.6024 31.6058 31.9456 30.991L31.9417 30.9359L31.8899 30.9393C31.5173 30.5966 31.1103 30.2835 30.6606 30.0298C29.761 29.5222 28.748 29.2578 27.7181 29.2633H22.4465L22.5014 30.3153C22.7634 35.3439 22.8943 38.0257 22.9597 39.4495C22.9924 40.1616 23.0087 40.5574 23.0167 40.774C23.0207 40.8823 23.0226 40.9444 23.0235 40.9781L23.0242 41.0064L23.0243 42H27.4159L27.4755 41.9996ZM30.0114 31.9827C29.903 31.9066 29.792 31.8361 29.6777 31.7716C29.17 31.4851 28.61 31.3161 28.0365 31.2738L28.4555 39.8507C29.1823 39.6371 29.8388 39.2022 30.4843 38.5962L30.0114 31.9827ZM32.462 38.2133C32.6566 38.428 32.8291 38.6725 32.9707 38.8788C33.0179 38.9476 33.0624 39.0132 33.1052 39.0762C33.2237 39.2509 33.3292 39.4064 33.4437 39.5579C33.7112 39.9118 33.8449 39.9838 33.8703 39.9975C33.8727 39.9988 33.8741 39.9996 33.8746 40H38.8596C39.403 40 40 39.4083 40 38.6847C40 37.9633 39.4061 37.3695 38.7398 37.3695H35.6694L35.4821 37.2899C34.0394 36.6771 33.0396 35.4134 32.2185 34.3652L32.1837 34.3208L32.462 38.2133ZM26.4604 40L26.0336 31.2633L24.5533 31.2633C24.7793 35.6223 24.8967 38.031 24.9576 39.3578C24.9691 39.6083 24.9786 39.8204 24.9865 40H26.4604Z" fill="black"/>
<path fill-rule="evenodd" clip-rule="evenodd" d="M14.2 32.4002L12.25 35.0002H9.5C7.567 35.0002 6 36.5672 6 38.5002C6 40.4332 7.567 42.0002 9.5 42.0002H14C15.1017 42.0002 16.139 41.4815 16.8 40.6002L19.8 36.6002C20.9598 35.0538 20.6464 32.86 19.1 31.7002C17.5536 30.5404 15.3598 30.8538 14.2 32.4002ZM15.8 33.6002L13.25 37.0002H9.5C8.67157 37.0002 8 37.6718 8 38.5002C8 39.3286 8.67157 40.0002 9.5 40.0002H14C14.4721 40.0002 14.9167 39.7779 15.2 39.4002L18.2 35.4002C18.6971 34.7375 18.5627 33.7973 17.9 33.3002C17.2373 32.8031 16.2971 32.9375 15.8 33.6002Z" fill="black"/>
<path fill-rule="evenodd" clip-rule="evenodd" d="M42 22.5C42 26.0899 39.0899 29 35.5 29C31.9101 29 29 26.0899 29 22.5C29 18.9101 31.9101 16 35.5 16C39.0899 16 42 18.9101 42 22.5ZM40 22.5C40 24.9853 37.9853 27 35.5 27C33.0147 27 31 24.9853 31 22.5C31 20.0147 33.0147 18 35.5 18C37.9853 18 40 20.0147 40 22.5Z" fill="black"/>
</svg>

<svg
  xmlns="http://www.w3.org/2000/svg"
  width="24"
  height="24"
  viewBox="0 0 24 24"
  fill="none"
  stroke="currentColor"
  stroke-width="2"
  stroke-linecap="round"
  stroke-linejoin="round"
>
  <path
    fill-rule="evenodd"
    d="M18 12a6 6 0 0 1-5 5.917V20h2a1 1 0 1 1 0 2h-2v3a1 1 0 1 1-2 0v-3H9a1 1 0 1 1 0-2h2v-2.083A6.002 6.002 0 0 1 12 6a6 6 0 0 1 6 6m-6 4a4 4 0 1 0 0-8 4 4 0 0 0 0 8"
    clip-rule="evenodd"
  />
  <path
    fill-rule="evenodd"
    d="M27.476 42a1 1 0 0 0 .11-.003c1.617-.048 2.896-.747 3.956-1.663.097.141.201.29.306.43.337.446.994 1.236 2.011 1.236h5C40.73 42 42 40.277 42 38.685c0-1.754-1.418-3.315-3.26-3.315h-2.648c-.814-.409-1.483-1.196-2.299-2.238l-.154-.197c-.488-.625-1.037-1.33-1.693-1.944l-.004-.055-.052.003a6.7 6.7 0 0 0-1.23-.91 5.9 5.9 0 0 0-2.942-.766h-5.271l.054 1.052c.262 5.029.393 7.71.459 9.135a160 160 0 0 1 .063 1.528l.001.028V42h4.452m2.535-10.017a3.926 3.926 0 0 0-1.975-.709l.42 8.577c.726-.214 1.383-.649 2.028-1.255zm2.451 6.23c.195.215.367.46.509.666l.134.197c.119.175.224.33.339.482.267.354.4.426.426.44l.005.002h4.985c.543 0 1.14-.592 1.14-1.315 0-.722-.594-1.315-1.26-1.315h-3.07l-.188-.08c-1.443-.613-2.442-1.877-3.264-2.925l-.034-.044zM26.46 40l-.426-8.737h-1.48A1479 1479 0 0 1 24.986 40z"
    clip-rule="evenodd"
  />
  <path
    fill-rule="evenodd"
    d="M14.2 32.4 12.25 35H9.5a3.5 3.5 0 1 0 0 7H14a3.5 3.5 0 0 0 2.8-1.4l3-4a3.5 3.5 0 1 0-5.6-4.2m1.6 1.2L13.25 37H9.5a1.5 1.5 0 0 0 0 3H14a1.5 1.5 0 0 0 1.2-.6l3-4a1.5 1.5 0 0 0-2.4-1.8"
    clip-rule="evenodd"
  />
  <path
    fill-rule="evenodd"
    d="M42 22.5a6.5 6.5 0 1 1-13 0 6.5 6.5 0 0 1 13 0m-2 0a4.5 4.5 0 1 1-9 0 4.5 4.5 0 0 1 9 0"
    clip-rule="evenodd"
  />
</svg>
